X: 20979
T: Julia Clifford's
R: jig
M: 6/8
K: Amixolydian
|:e|fdf gfg|fdf gfg|eaa ecA|BcB B2e|
fdf gfg|fdf gfg|eaa ecA|1 B2A A2:|2 B2A A2B||
|:c3 ece|faf ece|faf ecA|BcB BAB|
cAc ece|faf ece|faf ecA|1 B2A A2B:|2 B2A A2||

